en/_assets/create-resource-vm.svg

<svg xmlns="http://www.w3.org/2000/svg" width="14" height="14" viewBox="0 0 14 14">
    <path d="M14 6.125v-1.75h-1.75v-1.75a.874.874 0 0 0-.875-.875h-1.75V0h-1.75v1.75h-1.75V0h-1.75v1.75h-1.75a.874.874 0 0 0-.875.875v1.75H0v1.75h1.75v1.75H0v1.75h1.75v1.75c0 .484.39.875.875.875h1.75V14h1.75v-1.75h1.75V14h1.75v-1.75h1.75c.484 0 .875-.39.875-.875v-1.75H14v-1.75h-1.75v-1.75Zm-4.375 3.5h-5.25v-5.25h5.25Zm0 0" style="stroke:none;fill-rule:nonzero;fill:#000;fill-opacity:1"/>
</svg>

<?xml version="1.0" encoding="UTF-8"?>
<svg xmlns="http://www.w3.org/2000/svg" xmlns:xlink="http://www.w3.org/1999/xlink" width="14px" height="14px" viewBox="0 0 14 14" version="1.1">
<g id="surface1">
<path style=" stroke:none;fill-rule:nonzero;fill:rgb(0%,0%,0%);fill-opacity:1;" d="M 14 6.125 L 14 4.375 L 12.25 4.375 L 12.25 2.625 C 12.25 2.140625 11.859375 1.75 11.375 1.75 L 9.625 1.75 L 9.625 0 L 7.875 0 L 7.875 1.75 L 6.125 1.75 L 6.125 0 L 4.375 0 L 4.375 1.75 L 2.625 1.75 C 2.140625 1.75 1.75 2.140625 1.75 2.625 L 1.75 4.375 L 0 4.375 L 0 6.125 L 1.75 6.125 L 1.75 7.875 L 0 7.875 L 0 9.625 L 1.75 9.625 L 1.75 11.375 C 1.75 11.859375 2.140625 12.25 2.625 12.25 L 4.375 12.25 L 4.375 14 L 6.125 14 L 6.125 12.25 L 7.875 12.25 L 7.875 14 L 9.625 14 L 9.625 12.25 L 11.375 12.25 C 11.859375 12.25 12.25 11.859375 12.25 11.375 L 12.25 9.625 L 14 9.625 L 14 7.875 L 12.25 7.875 L 12.25 6.125 Z M 9.625 9.625 L 4.375 9.625 L 4.375 4.375 L 9.625 4.375 Z M 9.625 9.625 "/>
</g>
</svg>
